flags/other/pirate.svg

<svg width="512" height="512" viewBox="0 0 512 512" fill="none" xmlns="http://www.w3.org/2000/svg">
<rect width="512" height="512" fill="var(--flag-palette-black, #333333)"/>
<path fill-rule="evenodd" clip-rule="evenodd" d="M144.001 108.999C154.001 107.999 162.001 115.999 162.001 125.999C162.001 130.999 160.001 136.999 156.001 139.999L173.001 156.999L156.001 172.999L140.001 155.999C136.001 159.999 131.001 161.999 126.001 161.999C116.001 161.999 108.001 153.999 109.001 143.999C108.001 133.999 116.001 125.999 126.001 125.999C126.001 115.999 134.001 107.999 144.001 108.999ZM160.001 334.999L177.001 350.999L156.001 371.999C160.001 375.999 162.001 380.999 162.001 385.999C162.001 395.999 154.001 403.999 144.001 402.999C134.001 403.999 126.001 395.999 126.001 385.999C116.001 385.999 108.001 377.999 109.001 367.999C108.001 357.999 116.001 349.999 126.001 349.999C131.001 349.999 136.001 351.999 140.001 355.999L160.001 334.999ZM368 108.999C358 107.999 350 115.999 350 125.999C350 130.999 352 136.999 356 139.999L339 156.999L356 172.999L372 155.999C376 159.999 381 161.999 386 161.999C396 161.999 404 153.999 403 143.999C404 133.999 396 125.999 386 125.999C386 115.999 378 107.999 368 108.999ZM352 334.999L335 350.999L356 371.999C352 375.999 350 380.999 350 385.999C350 395.999 358 403.999 368 402.999C378 403.999 386 395.999 386 385.999C396 385.999 404 377.999 403 367.999C404 357.999 396 349.999 386 349.999C381 349.999 376 351.999 372 355.999L352 334.999ZM256 149.999C197 149.999 150 197.999 150 255.999V296.999C150 296.999 164 304.999 186 325.999C207 347.999 215 361.999 215 361.999H297C297 361.999 305 347.999 326 325.999C348 304.999 362 296.999 362 296.999V255.999C362 197.999 315 149.999 256 149.999ZM241.301 267.699C241.301 287.195 225.496 302.999 206.001 302.999C186.505 302.999 170.701 287.195 170.701 267.699C170.701 248.204 186.505 232.399 206.001 232.399C225.496 232.399 241.301 248.204 241.301 267.699ZM341.301 267.699C341.301 287.195 325.496 302.999 306.001 302.999C286.505 302.999 270.701 287.195 270.701 267.699C270.701 248.204 286.505 232.399 306.001 232.399C325.496 232.399 341.301 248.204 341.301 267.699ZM256.001 292.999C254.584 292.987 253.19 293.35 251.96 294.053C250.73 294.756 249.709 295.773 249.001 296.999L236.001 316.999C235.295 318.221 234.926 319.607 234.929 321.017C234.932 322.428 235.308 323.812 236.018 325.031C236.729 326.249 237.749 327.258 238.975 327.955C240.202 328.652 241.59 329.012 243.001 328.999H269.001C270.411 329.012 271.8 328.652 273.026 327.955C274.252 327.258 275.272 326.249 275.983 325.031C276.694 323.812 277.07 322.428 277.073 321.017C277.076 319.607 276.706 318.221 276.001 316.999L263.001 296.999C262.292 295.773 261.271 294.756 260.041 294.053C258.812 293.35 257.417 292.987 256.001 292.999Z" fill="var(--flag-palette-white, #eeeeee)"/>
</svg>

<svg xmlns="http://www.w3.org/2000/svg" width="512" height="512" fill="none"><g clip-path="url(#a)"><path fill="#333" d="M0 0h512v512H0z"/><path fill="#EEE" fill-rule="evenodd" d="M144 109c10-1 18 7 18 17 0 5-2 11-6 14l17 17-17 16-16-17c-4 4-9 6-14 6-10 0-18-8-17-18-1-10 7-18 17-18 0-10 8-18 18-17m16 226 17 16-21 21c4 4 6 9 6 14 0 10-8 18-18 17-10 1-18-7-18-17-10 0-18-8-17-18-1-10 7-18 17-18 5 0 10 2 14 6zm208-226c-10-1-18 7-18 17 0 5 2 11 6 14l-17 17 17 16 16-17c4 4 9 6 14 6 10 0 18-8 17-18 1-10-7-18-17-18 0-10-8-18-18-17m-16 226-17 16 21 21c-4 4-6 9-6 14 0 10 8 18 18 17 10 1 18-7 18-17 10 0 18-8 17-18 1-10-7-18-17-18-5 0-10 2-14 6zm-96-185c-59 0-106 48-106 106v41a212 212 0 0 0 65 65h82s8-14 29-36c22-21 36-29 36-29v-41c0-58-47-106-106-106m-14.7 117.7a35.3 35.3 0 1 1-70.6 0 35.3 35.3 0 0 1 70.6 0m100 0a35.3 35.3 0 1 1-70.6 0 35.3 35.3 0 0 1 70.6 0M256 293a8 8 0 0 0-7 4l-13 20a8 8 0 0 0 7 12h26a8 8 0 0 0 7-12l-13-20a8 8 0 0 0-7-4" clip-rule="evenodd"/></g><defs><clipPath id="a"><path fill="#fff" d="M0 0h512v512H0z"/></clipPath></defs></svg>
